pp/gear-filled.svg

<svg viewBox="0 0 20 20" fill="none" xmlns="http://www.w3.org/2000/svg" height="1em" width="1em">
  <path d="M10.5577 2.25C10.8545 2.25 11.1234 2.42509 11.2435 2.69656L11.6859 3.69656C11.9053 4.1924 11.5423 4.75 11.0001 4.75L9.00006 4.75C8.477 4.75 8.11458 4.22806 8.29733 3.73796L8.67022 2.73796C8.77963 2.44455 9.05981 2.25 9.37295 2.25H10.5577Z" fill="currentColor"/>
  <path d="M9.44259 17.75C9.14574 17.75 8.87682 17.5749 8.75672 17.3034L8.31431 16.3034C8.09494 15.8076 8.45799 15.25 9.00018 15.25H11.0002C11.5232 15.25 11.8857 15.7719 11.7029 16.262L11.33 17.262C11.2206 17.5554 10.9404 17.75 10.6273 17.75H9.44259Z" fill="currentColor"/>
  <path d="M17.7501 10.5575C17.7501 10.8544 17.575 11.1233 17.3036 11.2434L16.3036 11.6858C15.8077 11.9052 15.2501 11.5421 15.2501 10.9999V8.99994C15.2501 8.47688 15.7721 8.11445 16.2622 8.29721L17.2622 8.6701C17.5556 8.77951 17.7501 9.05969 17.7501 9.37283V10.5575Z" fill="currentColor"/>
  <path d="M2.25012 9.44247C2.25012 9.14562 2.42521 8.8767 2.69668 8.7566L3.69668 8.31418C4.19252 8.09482 4.75012 8.45786 4.75012 9.00006V11.0001C4.75012 11.5231 4.22818 11.8855 3.73808 11.7028L2.73808 11.3299C2.44467 11.2205 2.25012 10.9403 2.25012 10.6272V9.44247Z" fill="currentColor"/>
  <path d="M15.8744 4.91417C16.0843 5.12408 16.1506 5.43804 16.0436 5.71492L15.6493 6.73486C15.4538 7.24059 14.8028 7.37816 14.4194 6.99477L13.0052 5.58056C12.6354 5.21069 12.7482 4.58535 13.2239 4.36803L14.1947 3.92459C14.4796 3.79449 14.8152 3.85504 15.0367 4.07646L15.8744 4.91417Z" fill="currentColor"/>
  <path d="M4.12587 15.0858C3.91596 14.8759 3.84961 14.562 3.95665 14.2851L4.35092 13.2651C4.54642 12.7594 5.19741 12.6218 5.5808 13.0052L6.99502 14.4194C7.36488 14.7893 7.25208 15.4146 6.7763 15.632L5.80552 16.0754C5.52069 16.2055 5.185 16.145 4.96358 15.9235L4.12587 15.0858Z" fill="currentColor"/>
  <path d="M15.086 15.8743C14.876 16.0842 14.5621 16.1505 14.2852 16.0435L13.2653 15.6492C12.7595 15.4537 12.622 14.8027 13.0054 14.4193L14.4196 13.0051C14.7894 12.6352 15.4148 12.748 15.6321 13.2238L16.0755 14.1946C16.2056 14.4794 16.1451 14.8151 15.9237 15.0365L15.086 15.8743Z" fill="currentColor"/>
  <path d="M4.91429 4.12575C5.1242 3.91584 5.43816 3.84949 5.71505 3.95653L6.73498 4.3508C7.24071 4.5463 7.37828 5.19729 6.99489 5.58068L5.58068 6.9949C5.21081 7.36476 4.58548 7.25196 4.36815 6.77618L3.92471 5.8054C3.79461 5.52057 3.85516 5.18488 4.07658 4.96346L4.91429 4.12575Z" fill="currentColor"/>
  <path fill-rule="evenodd" clip-rule="evenodd" d="M5.58058 14.4194C6.74366 15.5825 8.32182 16.25 10 16.25C11.6782 16.25 13.2563 15.5825 14.4194 14.4194C15.5825 13.2563 16.25 11.6782 16.25 10C16.25 8.32182 15.5825 6.74366 14.4194 5.58058C13.2563 4.4175 11.6782 3.75 10 3.75C8.32182 3.75 6.74366 4.4175 5.58058 5.58058C4.4175 6.74366 3.75 8.32182 3.75 10C3.75 11.6782 4.4175 13.2563 5.58058 14.4194ZM11.2374 11.2374C10.9099 11.565 10.4724 11.75 10 11.75C9.52756 11.75 9.09009 11.565 8.76256 11.2374C8.43503 10.9099 8.25 10.4724 8.25 10C8.25 9.52756 8.43503 9.09009 8.76256 8.76256C9.09009 8.43503 9.52756 8.25 10 8.25C10.4724 8.25 10.9099 8.43503 11.2374 8.76256C11.565 9.09009 11.75 9.52756 11.75 10C11.75 10.4724 11.565 10.9099 11.2374 11.2374Z" fill="currentColor"/>
</svg>

<svg viewBox="0 0 20 20" fill="none" xmlns="http://www.w3.org/2000/svg" height="1em" width="1em">
  <path d="M10.558 2.25a.75.75 0 0 1 .685.447l.443 1A.75.75 0 0 1 11 4.75H9a.75.75 0 0 1-.703-1.012l.373-1a.75.75 0 0 1 .703-.488h1.185Zm-1.115 15.5a.75.75 0 0 1-.686-.447l-.443-1A.75.75 0 0 1 9 15.25h2a.75.75 0 0 1 .703 1.012l-.373 1a.75.75 0 0 1-.703.488H9.443Zm8.307-7.193a.75.75 0 0 1-.446.686l-1 .443A.75.75 0 0 1 15.25 11V9a.75.75 0 0 1 1.012-.703l1 .373a.75.75 0 0 1 .488.703v1.184ZM2.25 9.442a.75.75 0 0 1 .447-.685l1-.443A.75.75 0 0 1 4.75 9v2a.75.75 0 0 1-1.012.703l-1-.373a.75.75 0 0 1-.488-.703V9.442Zm13.624-4.528a.75.75 0 0 1 .17.8l-.395 1.02a.75.75 0 0 1-1.23.26l-1.414-1.413a.75.75 0 0 1 .219-1.213l.97-.443a.75.75 0 0 1 .843.151l.837.838ZM4.126 15.086a.75.75 0 0 1-.17-.8l.395-1.02a.75.75 0 0 1 1.23-.26l1.414 1.413a.75.75 0 0 1-.219 1.213l-.97.443a.75.75 0 0 1-.842-.151l-.838-.838Zm10.96.788a.75.75 0 0 1-.8.17l-1.02-.395a.75.75 0 0 1-.26-1.23l1.414-1.414a.75.75 0 0 1 1.212.219l.444.97a.75.75 0 0 1-.152.842l-.838.838ZM4.914 4.126a.75.75 0 0 1 .801-.17l1.02.395a.75.75 0 0 1 .26 1.23L5.58 6.995a.75.75 0 0 1-1.213-.219l-.443-.97a.75.75 0 0 1 .152-.843l.837-.837Z" fill="currentColor"/>
  <path fill-rule="evenodd" clip-rule="evenodd" d="M5.58 14.42A6.236 6.236 0 0 0 10 16.25a6.236 6.236 0 0 0 4.42-1.83A6.236 6.236 0 0 0 16.25 10a6.236 6.236 0 0 0-1.83-4.42A6.236 6.236 0 0 0 10 3.75a6.236 6.236 0 0 0-4.42 1.83A6.236 6.236 0 0 0 3.75 10c0 1.678.668 3.256 1.83 4.42Zm5.657-3.183A1.737 1.737 0 0 1 10 11.75c-.472 0-.91-.185-1.237-.513A1.737 1.737 0 0 1 8.25 10c0-.472.185-.91.513-1.237A1.737 1.737 0 0 1 10 8.25c.472 0 .91.185 1.237.513.328.327.513.765.513 1.237 0 .472-.185.91-.513 1.237Z" fill="currentColor"/>
</svg>
